img/ic_viewList.svg

<svg width="24" height="24" fill="none" xmlns="http://www.w3.org/2000/svg"><path d="M10 19h14v-2H10v2zm0-6h14v-2H10v2zm0-8v2h14V5H10z" fill="#22D091"/><circle cx="4" cy="6" r="2" fill="#22D091"/><circle cx="4" cy="12" r="2" fill="#22D091"/><circle cx="4" cy="18" r="2" fill="#22D091"/></svg>

<svg width="24" height="24" viewBox="0 0 24 24" fill="none" xmlns="http://www.w3.org/2000/svg">
<path d="M10 19H24V17H10V19ZM10 13H24V11H10V13ZM10 5V7H24V5H10Z" fill="#22D091"/>
<circle cx="4" cy="6" r="2" fill="#22D091"/>
<circle cx="4" cy="12" r="2" fill="#22D091"/>
<circle cx="4" cy="18" r="2" fill="#22D091"/>
</svg>
